X: 4220
T: Blueberry Ball, The
R: jig
M: 6/8
K: Gmajor
|:G2 E|D2 G GBG|A2 F ABc|dBd cAG|FAF E2 F|
D2 G GG/A/B|A2 F A2 c|d2 B cAF|G3:|
|:B2 c|d2 B ded|cAB cA/B/c|B2 G dGG|
[1 FAA AA/B/c|dB/c/d ded|cAB c2 d|B2 G cAF|G3:|
[2 FAF E3|D2 G GB/A/G|AFG ABc|dB/c/d cAF|G3||

